X: 5370
T: Bucks Of Dublin, The
R: slide
M: 12/8
K: Gmajor
GBd dBG|GBd efg|dBG ABc|BGE AFD|
GBd dBG|GBd efg|dBG ABG|E2 F G2:|
GBd g2 b|afd dBG|GBd gfg|afd e2 f|
gfg aga|bgd ege|dBG ABG|E2 F G2:|
GBd d2 G|GBd e2 g|dBG A/B/cA|BGE F2 D|
GB/c/d d2 G|GB/c/d e2 g|dBG A^GA|E2 F G2:|
GBd g2 b|afd g2 B|GB/c/d g2 g afd e2 f|
g2 g a^ga|bgd e2 g|dBG A^GA|E2 F G2:|

